packages/core/src/svgs/tokens/branded/ZCX.svg

<svg width="24" height="24" viewBox="0 0 24 24" fill="none" xmlns="http://www.w3.org/2000/svg">
<path d="M10.5776 7.06555L8.24445 9.17406L12.4991 13.8529H2.01855C2.10479 12.8332 2.39882 11.8421 2.88254 10.9403C3.36626 10.0386 4.02942 9.24524 4.83122 8.60947C5.63302 7.97364 6.55647 7.50866 7.54472 7.24314C8.53297 6.97762 9.5651 6.91718 10.5776 7.06555ZM12.4803 7.60205L11.7753 8.23836H13.6468C13.2788 7.98882 12.8921 7.78295 12.4803 7.60205ZM15.5995 10.1099H11.5758L15.7554 14.7887L11.3263 18.8436H8.756L12.2931 15.7244H2.09965C2.28487 16.8399 2.71981 17.8993 3.37196 18.8231C4.02411 19.747 4.87661 20.5115 5.86575 21.0596C6.8549 21.6077 7.95511 21.9252 9.0842 21.9883C10.2133 22.0514 11.342 21.8585 12.3861 21.4241C13.4302 20.9896 14.3625 20.3248 15.1136 19.4794C15.8647 18.6341 16.415 17.6299 16.7234 16.5418C17.0317 15.4539 17.0902 14.3102 16.8946 13.1965C16.699 12.0827 16.2541 11.0275 15.5933 10.1099H15.5995Z" fill="#05F1A4"/>
<path d="M21.9003 8.23837H11.7755L15.2378 5.11918H12.7299L8.24459 9.17407L12.4992 13.8529H8.40679C7.60776 12.7328 7.13237 11.4143 7.03266 10.0419C6.93295 8.66951 7.21277 7.29617 7.84149 6.07225C8.47021 4.8483 9.42362 3.82095 10.5971 3.10269C11.7708 2.38443 13.1194 2.00294 14.4954 2C18.2135 2 21.3015 4.69497 21.8942 8.23837H21.9003ZM21.9815 10.1099H11.5759L15.7556 14.7887L13.4474 16.8973C14.458 17.0418 15.4874 16.9787 16.4728 16.7114C17.4581 16.4442 18.3784 15.9785 19.1774 15.3431C19.9764 14.7076 20.6373 13.9158 21.1195 13.0159C21.6016 12.116 21.8949 11.1271 21.9815 10.1099ZM11.5571 16.3733L12.2932 15.7244H10.3532C10.7338 15.9769 11.1369 16.1941 11.5571 16.3733Z" fill="#00AFA4"/>
<path d="M13.6465 8.23837C13.2723 7.98884 12.8855 7.78297 12.48 7.60206L11.775 8.23837H13.6465ZM12.4988 13.8529L8.25662 9.17408L10.5836 7.06557C9.4929 6.91011 8.38137 6.99527 7.32711 7.31509C6.99404 8.41504 6.91872 9.57685 7.10696 10.7106C7.2952 11.8444 7.74194 12.9195 8.41259 13.8529H12.4988ZM15.5867 10.1099H11.5755L15.7426 14.7887L13.4407 16.8973C14.5232 17.049 15.6259 16.9638 16.6722 16.6477C17.0052 15.5478 17.0806 14.3859 16.8924 13.2521C16.704 12.1184 16.2573 11.0432 15.5867 10.1099ZM10.3527 15.7244C10.7332 15.974 11.1325 16.1924 11.5567 16.3733L12.2867 15.7244H10.3527Z" fill="#01D5A3"/>
</svg>

<svg xmlns="http://www.w3.org/2000/svg" width="24" height="24" fill="none" viewBox="0 0 24 24">
    <path fill="#05F1A4" d="M10.578 7.066 8.244 9.174l4.255 4.679H2.02a7.5 7.5 0 0 1 8.559-6.787m1.902.536-.705.636h1.872a7.3 7.3 0 0 0-1.167-.636m3.12 2.508h-4.024l4.18 4.679-4.43 4.055h-2.57l3.537-3.12H2.1a7.505 7.505 0 1 0 13.493-5.614z"/>
    <path fill="#00AFA4" d="M21.9 8.238H11.776l3.462-3.119H12.73L8.245 9.174l4.254 4.679H8.407A7.498 7.498 0 0 1 14.495 2a7.495 7.495 0 0 1 7.4 6.238zm.082 1.872H11.576l4.18 4.679-2.309 2.108a7.5 7.5 0 0 0 8.535-6.787m-10.425 6.263.736-.649h-1.94a7.5 7.5 0 0 0 1.204.65"/>
    <path fill="#01D5A3" d="M13.647 8.238a8 8 0 0 0-1.167-.636l-.705.636zm-1.148 5.615L8.257 9.174l2.327-2.108a7.55 7.55 0 0 0-3.257.25 7.49 7.49 0 0 0 1.086 6.537zm3.088-3.743h-4.011l4.167 4.679-2.302 2.108a7.55 7.55 0 0 0 3.231-.25 7.49 7.49 0 0 0-1.085-6.537m-5.234 5.614q.569.376 1.204.65l.73-.65z"/>
</svg>
